resources/svg/major-collections.svg

<svg xmlns="http://www.w3.org/2000/svg" viewBox="0 0 20 20" fill="currentColor"><path d="M6.948.001c.394 0 .772.159 1.052.439l1.477 1.68-3.638 4.12a3.568 3.568 0 0 0-.872 2.33v9.43h-2.48a1.48 1.48 0 0 1-1.051-.44 1.507 1.507 0 0 1-.436-1.06v-9.88a1.497 1.497 0 0 1 .377-1l3.48-4 1.04-1.18a1.48 1.48 0 0 1 1.052-.439zm7.092 2.439 4.58 5.13c.247.275.383.631.381 1v9.93c0 .399-.159.78-.441 1.062a1.51 1.51 0 0 1-1.065.439h-9.039a1.509 1.509 0 0 1-1.033-.457 1.497 1.497 0 0 1-.423-1.044v-9.88a1.487 1.487 0 0 1 .382-1l3.524-4.001 1.005-1.18a1.51 1.51 0 0 1 2.128 0zm-1.9 5.807a1.51 1.51 0 0 0 1.901-.186 1.497 1.497 0 0 0-.489-2.447 1.512 1.512 0 0 0-1.641.325 1.498 1.498 0 0 0 .228 2.308z"/></svg>

<svg xmlns="http://www.w3.org/2000/svg" viewBox="0 0 20 20" fill="currentColor"><path d="M6.948.001C7.342.001 7.72.16 8 .44l1.477 1.68-3.638 4.12a3.568 3.568 0 00-.872 2.33V18H2.487a1.48 1.48 0 01-1.051-.44A1.507 1.507 0 011 16.5V6.62a1.497 1.497 0 01.377-1l3.48-4L5.897.44A1.48 1.48 0 016.949.001zM14.04 2.44l4.58 5.13c.247.275.383.631.381 1v9.93c0 .399-.159.78-.441 1.062a1.51 1.51 0 01-1.065.439H8.456a1.509 1.509 0 01-1.033-.457A1.497 1.497 0 017 18.5V8.62a1.487 1.487 0 01.382-1l3.524-4.001 1.005-1.18a1.51 1.51 0 012.128 0zm-1.9 5.807a1.51 1.51 0 001.901-.186 1.497 1.497 0 00-.489-2.447 1.512 1.512 0 00-1.641.325 1.498 1.498 0 00.228 2.308z" fill="#5C5F62"/></svg>
